X: 95
T: Traditional Mabou Reel
T: Reel, A
L: 1/8
M: C|
K: A
|: B| AFEF ABcA| dcBA BFFB| AFEF ABce| fbec A2A:| 
|: F| A,2af ecBA| B/B/B Bc fefg| aefb ecBc| AFEF A2A:| 
D: Stephanie Wills, Tradition Continued, STEPH 1-94
